X:57
T:Connaught Man's Rambles, The
R:Jig
M:6/8
L:1/8
K:D
A|"D"FAA dAA|"G"BAB "D"dAG|FAA Afe|"Bm"dBB "G"A|!
"D"FAA dAA|"G"BAB "D"def|"Em"gfe dfe|"Bm"dBB B2::!
g|"Bm"fbb "F#m"faa|"D"fef deg|"Bm"fbb "F#m"faa|"D"fed "A"e2g|!
"Bm"fbb "F#m"faa|"D"fef def|"Em"gfe dfe|"Bm"dBB "G"B2:|

